safe_qgis/resources/img/icons/show-batch-runner.svg

<?xml version="1.0" encoding="UTF-8" standalone="no"?>
<!-- Generator: Adobe Illustrator 15.0.0, SVG Export Plug-In . SVG Version: 6.00 Build 0)  -->

<svg
   xmlns:dc="http://purl.org/dc/elements/1.1/"
   xmlns:cc="http://creativecommons.org/ns#"
   xmlns:rdf="http://www.w3.org/1999/02/22-rdf-syntax-ns#"
   xmlns:svg="http://www.w3.org/2000/svg"
   xmlns="http://www.w3.org/2000/svg"
   xmlns:xlink="http://www.w3.org/1999/xlink"
   xmlns:sodipodi="http://sodipodi.sourceforge.net/DTD/sodipodi-0.dtd"
   xmlns:inkscape="http://www.inkscape.org/namespaces/inkscape"
   version="1.1"
   id="Layer_1"
   x="0px"
   y="0px"
   width="64"
   height="64"
   viewBox="0 0 64 64"
   enable-background="new 0 0 567 567"
   xml:space="preserve"
   inkscape:version="0.48.4 r9939"
   sodipodi:docname="icon.svg"><metadata
     id="metadata16"><rdf:RDF><cc:Work
         rdf:about=""><dc:format>image/svg+xml</dc:format><dc:type
           rdf:resource="http://purl.org/dc/dcmitype/StillImage" /><dc:title></dc:title></cc:Work></rdf:RDF></metadata><defs
     id="defs14"><filter
       id="filter2992"
       inkscape:label="Drop Shadow"
       color-interpolation-filters="sRGB"><feFlood
         id="feFlood2994"
         flood-opacity="0.5"
         flood-color="rgb(0,0,0)"
         result="flood" /><feComposite
         id="feComposite2996"
         in2="SourceGraphic"
         in="flood"
         operator="in"
         result="composite1" /><feGaussianBlur
         id="feGaussianBlur2998"
         stdDeviation="2"
         result="blur" /><feOffset
         id="feOffset3000"
         dx="4"
         dy="4"
         result="offset" /><feComposite
         id="feComposite3002"
         in2="offset"
         in="SourceGraphic"
         operator="over"
         result="composite2" /></filter><filter
       color-interpolation-filters="sRGB"
       id="filter2992-6"
       inkscape:label="Drop Shadow"
       style="color-interpolation-filters:sRGB;"><feFlood
         id="feFlood2994-6"
         flood-opacity="0.5"
         flood-color="rgb(0,0,0)"
         result="flood" /><feComposite
         id="feComposite2996-1"
         in2="SourceGraphic"
         in="flood"
         operator="in"
         result="composite1" /><feGaussianBlur
         id="feGaussianBlur2998-2"
         stdDeviation="2"
         result="blur" /><feOffset
         id="feOffset3000-4"
         dx="4"
         dy="4"
         result="offset" /><feComposite
         id="feComposite3002-7"
         in2="offset"
         in="SourceGraphic"
         operator="over"
         result="fbSourceGraphic" /><feColorMatrix
         result="fbSourceGraphicAlpha"
         in="fbSourceGraphic"
         values="0 0 0 -1 0 0 0 0 -1 0 0 0 0 -1 0 0 0 0 1 0"
         id="feColorMatrix4040" /><feFlood
         id="feFlood4042"
         flood-opacity="0.5"
         flood-color="rgb(0,0,0)"
         result="flood"
         in="fbSourceGraphic" /><feComposite
         id="feComposite4044"
         in2="fbSourceGraphic"
         in="flood"
         operator="in"
         result="composite1" /><feGaussianBlur
         id="feGaussianBlur4046"
         in="composite"
         stdDeviation="2"
         result="blur" /><feOffset
         id="feOffset4048"
         dx="10"
         dy="10"
         result="offset" /><feComposite
         id="feComposite4050"
         in2="offset"
         in="fbSourceGraphic"
         operator="over"
         result="composite2" /></filter><filter
       color-interpolation-filters="sRGB"
       id="filter2992-5"
       inkscape:label="Drop Shadow"><feFlood
         id="feFlood2994-8"
         flood-opacity="0.5"
         flood-color="rgb(0,0,0)"
         result="flood" /><feComposite
         id="feComposite2996-8"
         in2="SourceGraphic"
         in="flood"
         operator="in"
         result="composite1" /><feGaussianBlur
         id="feGaussianBlur2998-5"
         stdDeviation="2"
         result="blur" /><feOffset
         id="feOffset3000-0"
         dx="4"
         dy="4"
         result="offset" /><feComposite
         id="feComposite3002-0"
         in2="offset"
         in="SourceGraphic"
         operator="over"
         result="composite2" /></filter><linearGradient
       inkscape:collect="always"
       xlink:href="#linearGradient3786-3"
       id="linearGradient3792-9"
       x1="299.62643"
       y1="77.762421"
       x2="294.99335"
       y2="261.76202"
       gradientUnits="userSpaceOnUse" /><linearGradient
       inkscape:collect="always"
       id="linearGradient3786-3"><stop
         style="stop-color:#f15a2b;stop-opacity:1;"
         offset="0"
         id="stop3788-7" /><stop
         style="stop-color:#f15a2b;stop-opacity:0;"
         offset="1"
         id="stop3790-0" /></linearGradient></defs><sodipodi:namedview
     pagecolor="#ffffff"
     bordercolor="#666666"
     borderopacity="1"
     objecttolerance="10"
     gridtolerance="10"
     guidetolerance="10"
     inkscape:pageopacity="0"
     inkscape:pageshadow="2"
     inkscape:window-width="1170"
     inkscape:window-height="727"
     id="namedview12"
     showgrid="false"
     inkscape:zoom="3.6049335"
     inkscape:cx="46.657115"
     inkscape:cy="22.256241"
     inkscape:window-x="2356"
     inkscape:window-y="204"
     inkscape:window-maximized="0"
     inkscape:current-layer="layer4" /><g
     inkscape:groupmode="layer"
     id="layer1"
     inkscape:label="base0"
     style="display:inline"
     transform="translate(0,-503)"><g
       style="filter:url(#filter2992-6)"
       transform="matrix(0.16269334,0,0,0.16269334,-3.1526669,489.88814)"
       id="g3780"><path
         style="fill:#fcb040;stroke:#f15a2b;stroke-width:12;stroke-linecap:round"
         inkscape:connector-curvature="0"
         id="path3782"
         d="m 138.45005,98.497098 -80.049,154.739992 c -26.372,45.508 -28.15,64.647 -0.818,99 8.002,10.058 0,72 0,72 l 44.667,1.647 c 0,0 18,9 36,9 18,0 36,-9 36,-9 l 45.332,-1.647 c 0,0 -7.729,-62.042 0,-72 26.668,-34.353 27,-54 0,-99 l -81.132,-154.739992" /></g><g
       inkscape:groupmode="layer"
       id="layer3"
       inkscape:label="Layer#2"
       style="display:none" /></g><g
     inkscape:groupmode="layer"
     id="layer2"
     inkscape:label="base1"
     transform="translate(0,-503)"
     style="display:inline"><g
       id="g6"
       transform="matrix(0.16269334,0,0,0.16269334,-28.699027,493.22916)"
       style="filter:url(#filter2992-5)"><path
         d="m 296.164,77.14 -80.049,154.74 c -26.372,45.508 -28.15,64.647 -0.818,99 8.002,10.058 0,72 0,72 l 44.667,1.647 c 0,0 18,9 36,9 18,0 36,-9 36,-9 l 45.332,-1.647 c 0,0 -7.729,-62.042 0,-72 26.668,-34.353 27,-54 0,-99 L 296.164,77.14"
         id="path8"
         inkscape:connector-curvature="0"
         style="fill:#fcb040;stroke:url(#linearGradient3792-9);stroke-width:12;stroke-linecap:round" /><line
         stroke-miterlimit="10"
         x1="296.297"
         y1="80.528"
         x2="296.297"
         y2="441.72198"
         id="line10"
         style="fill:none;stroke:#f1592a;stroke-width:7;stroke-linecap:round;stroke-miterlimit:10" /></g></g><g
     inkscape:groupmode="layer"
     id="layer4"
     inkscape:label="action"
     transform="translate(0,-503)"
     style="display:inline"><g
       transform="matrix(0.84148707,0,0,0.84148707,9.1140654,511.91647)"
       id="Layer 3"><g
         id="g3472"><path
           style="fill:#ffffff;fill-opacity:0.26499999"
           inkscape:connector-curvature="0"
           d="m 64,42.953 0,-6 -7.172,-2.988 c -0.199,-0.562 -0.409,-1.106 -0.667,-1.64 l 2.895,-7.208 -4.244,-4.242 -7.143,2.941 c -0.544,-0.264 -1.1,-0.486 -1.675,-0.691 L 42.953,16 l -6,0 -2.965,7.101 c -0.597,0.211 -1.171,0.434 -1.74,0.704 l -7.131,-2.865 -4.242,4.241 2.907,7.067 c -0.282,0.58 -0.51,1.171 -0.727,1.782 L 16,37.047 l 0,6 7.06,2.941 c 0.218,0.609 0.452,1.201 0.732,1.782 l -2.852,7.113 4.241,4.242 7.085,-2.917 c 0.568,0.27 1.149,0.486 1.746,0.691 l 3.035,7.101 6,0 2.969,-7.137 c 0.569,-0.211 1.131,-0.433 1.67,-0.691 l 7.196,2.883 4.242,-4.243 -2.954,-7.159 c 0.252,-0.539 0.457,-1.084 0.657,-1.641 L 64,42.953 z M 39.953,49 c -4.967,0 -8.999,-4.032 -8.999,-9 0,-4.968 4.032,-9 8.999,-9 4.969,0 9,4.032 9,9 0,4.968 -4.031,9 -9,9 z"
           id="path3474" /><path
           style="fill-opacity:0;stroke:#000000;stroke-width:1"
           inkscape:connector-curvature="0"
           d="m 64,42.953 0,-6 -7.172,-2.988 c -0.199,-0.562 -0.409,-1.106 -0.667,-1.64 l 2.895,-7.208 -4.244,-4.242 -7.143,2.941 c -0.544,-0.264 -1.1,-0.486 -1.675,-0.691 L 42.953,16 l -6,0 -2.965,7.101 c -0.597,0.211 -1.171,0.434 -1.74,0.704 l -7.131,-2.865 -4.242,4.241 2.907,7.067 c -0.282,0.58 -0.51,1.171 -0.727,1.782 L 16,37.047 l 0,6 7.06,2.941 c 0.218,0.609 0.452,1.201 0.732,1.782 l -2.852,7.113 4.241,4.242 7.085,-2.917 c 0.568,0.27 1.149,0.486 1.746,0.691 l 3.035,7.101 6,0 2.969,-7.137 c 0.569,-0.211 1.131,-0.433 1.67,-0.691 l 7.196,2.883 4.242,-4.243 -2.954,-7.159 c 0.252,-0.539 0.457,-1.084 0.657,-1.641 L 64,42.953 z M 39.953,49 c -4.967,0 -8.999,-4.032 -8.999,-9 0,-4.968 4.032,-9 8.999,-9 4.969,0 9,4.032 9,9 0,4.968 -4.031,9 -9,9 z"
           id="path3476" /></g></g></g></svg>

<?xml version="1.0" encoding="UTF-8"?>
<!DOCTYPE svg PUBLIC "-//W3C//DTD SVG 1.1//EN" "http://www.w3.org/Graphics/SVG/1.1/DTD/svg11.dtd">
<svg version="1.1" xmlns="http://www.w3.org/2000/svg" xmlns:xlink="http://www.w3.org/1999/xlink" x="0px" y="0px" width="64" height="64" viewBox="0, 0, 64, 64">
  <g id="base0">
    <g>
      <path d="M19.372,2.913 L6.349,28.088 C2.058,35.492 1.769,38.606 6.216,44.195 C7.518,45.831 6.216,55.909 6.216,55.909 L13.483,56.177 C13.483,56.177 16.411,57.641 19.34,57.641 C22.268,57.641 25.197,56.177 25.197,56.177 L32.572,55.909 C32.572,55.909 31.314,45.815 32.572,44.195 C36.911,38.606 36.965,35.409 32.572,28.088 L19.372,2.913" fill="#FCB040"/>
      <path d="M19.372,2.913 L6.349,28.088 C2.058,35.492 1.769,38.606 6.216,44.195 C7.518,45.831 6.216,55.909 6.216,55.909 L13.483,56.177 C13.483,56.177 16.411,57.641 19.34,57.641 C22.268,57.641 25.197,56.177 25.197,56.177 L32.572,55.909 C32.572,55.909 31.314,45.815 32.572,44.195 C36.911,38.606 36.965,35.409 32.572,28.088 L19.372,2.913" fill-opacity="0" stroke="#F15A2B" stroke-width="12" stroke-linecap="round"/>
    </g>
  </g>
  <g id="base1">
    <g>
      <path d="M19.485,2.779 L6.461,27.954 C2.171,35.358 1.882,38.472 6.328,44.061 C7.63,45.698 6.328,55.775 6.328,55.775 L13.595,56.043 C13.595,56.043 16.524,57.507 19.452,57.507 C22.381,57.507 25.309,56.043 25.309,56.043 L32.685,55.775 C32.685,55.775 31.427,45.681 32.685,44.061 C37.023,38.472 37.077,35.276 32.685,27.954 L19.485,2.779" fill="#FCB040"/>
      <path d="M19.485,2.779 L6.461,27.954 C2.171,35.358 1.882,38.472 6.328,44.061 C7.63,45.698 6.328,55.775 6.328,55.775 L13.595,56.043 C13.595,56.043 16.524,57.507 19.452,57.507 C22.381,57.507 25.309,56.043 25.309,56.043 L32.685,55.775 C32.685,55.775 31.427,45.681 32.685,44.061 C37.023,38.472 37.077,35.276 32.685,27.954 L19.485,2.779" fill-opacity="0" stroke="#F15A2B" stroke-width="12" stroke-opacity="0.5" stroke-linecap="round"/>
    </g>
    <path d="M19.507,3.331 L19.507,62.094" fill-opacity="0" stroke="#F1592A" stroke-width="7" stroke-linecap="round" stroke-miterlimit="10"/>
  </g>
  <g id="Layer 3">
    <g>
      <path d="M64,42.953 L64,36.953 L56.828,33.965 C56.629,33.403 56.419,32.859 56.161,32.325 L59.056,25.117 L54.812,20.875 L47.669,23.816 C47.125,23.552 46.569,23.33 45.994,23.125 L42.953,16 L36.953,16 L33.988,23.101 C33.391,23.312 32.817,23.535 32.248,23.805 L25.117,20.94 L20.875,25.181 L23.782,32.248 C23.5,32.828 23.272,33.419 23.055,34.03 L16,37.047 L16,43.047 L23.06,45.988 C23.278,46.597 23.512,47.189 23.792,47.77 L20.94,54.883 L25.181,59.125 L32.266,56.208 C32.834,56.478 33.415,56.694 34.012,56.899 L37.047,64 L43.047,64 L46.016,56.863 C46.585,56.652 47.147,56.43 47.686,56.172 L54.882,59.055 L59.124,54.812 L56.17,47.653 C56.422,47.114 56.627,46.569 56.827,46.012 L64,42.953 z M39.953,49 C34.986,49 30.954,44.968 30.954,40 C30.954,35.032 34.986,31 39.953,31 C44.922,31 48.953,35.032 48.953,40 C48.953,44.968 44.922,49 39.953,49 z" fill="#FFFFFF" fill-opacity="0.265"/>
      <path d="M64,42.953 L64,36.953 L56.828,33.965 C56.629,33.403 56.419,32.859 56.161,32.325 L59.056,25.117 L54.812,20.875 L47.669,23.816 C47.125,23.552 46.569,23.33 45.994,23.125 L42.953,16 L36.953,16 L33.988,23.101 C33.391,23.312 32.817,23.535 32.248,23.805 L25.117,20.94 L20.875,25.181 L23.782,32.248 C23.5,32.828 23.272,33.419 23.055,34.03 L16,37.047 L16,43.047 L23.06,45.988 C23.278,46.597 23.512,47.189 23.792,47.77 L20.94,54.883 L25.181,59.125 L32.266,56.208 C32.834,56.478 33.415,56.694 34.012,56.899 L37.047,64 L43.047,64 L46.016,56.863 C46.585,56.652 47.147,56.43 47.686,56.172 L54.882,59.055 L59.124,54.812 L56.17,47.653 C56.422,47.114 56.627,46.569 56.827,46.012 L64,42.953 z M39.953,49 C34.986,49 30.954,44.968 30.954,40 C30.954,35.032 34.986,31 39.953,31 C44.922,31 48.953,35.032 48.953,40 C48.953,44.968 44.922,49 39.953,49 z" fill-opacity="0" stroke="#000000" stroke-width="1"/>
    </g>
  </g>
  <defs/>
</svg>
